public/assets/dollar.svg

<svg fill="none" height="12" viewBox="0 0 8 12" width="8" xmlns="http://www.w3.org/2000/svg"><path d="m2.25978 3.83333c0 .63334.48667 1.04 2 1.43334 1.51333.39333 3.13333 1.04 3.13333 2.93333 0 1.36667-1.03333 2.12-2.33333 2.3667v1.4333h-2v-1.4467c-1.28-.2733-2.373335-1.0933-2.453335-2.5533h1.466665c.07334.78667.61334 1.4 1.98667 1.4 1.47333 0 1.8-.73333 1.8-1.19333 0-.62-.33333-1.20667-2-1.60667-1.86-.44667-3.133335-1.21333-3.133335-2.75333 0-1.28667 1.040005-2.12667 2.333335-2.40667v-1.44h2v1.46c1.39333.34 2.09333 1.39333 2.14 2.54h-1.47333c-.04-.83333-.48-1.4-1.66667-1.4-1.12667 0-1.8.50667-1.8 1.23333z" fill="#fff"/></svg>

<svg width="8" height="12" viewBox="0 0 8 12" fill="none" xmlns="http://www.w3.org/2000/svg">
<path d="M2.25978 3.83333C2.25978 4.46667 2.74645 4.87333 4.25978 5.26667C5.77311 5.66 7.39311 6.30667 7.39311 8.2C7.39311 9.56667 6.35978 10.32 5.05978 10.5667V12H3.05978V10.5533C1.77978 10.28 0.686445 9.46 0.606445 8H2.07311C2.14645 8.78667 2.68645 9.4 4.05978 9.4C5.53311 9.4 5.85978 8.66667 5.85978 8.20667C5.85978 7.58667 5.52645 7 3.85978 6.6C1.99978 6.15333 0.726445 5.38667 0.726445 3.84667C0.726445 2.56 1.76645 1.72 3.05978 1.44V0H5.05978V1.46C6.45311 1.8 7.15311 2.85333 7.19978 4H5.72645C5.68645 3.16667 5.24645 2.6 4.05978 2.6C2.93311 2.6 2.25978 3.10667 2.25978 3.83333Z" fill="white"/>
</svg>
